X:168
T: Dui huadeng, 4)
N: C1661D
O: China, Henan, Zhenping
S: IV, 156]
R: Wuge, Lianhualao]
M: 2/4
L: 1/16
K: G
d3ed2B2 | d2g4g2 | d3ed2B2 | A2d2d4
d4=F4 | z2e4e2 | d4d2B2 | A3Bd4
g2g2g2g2 | g4e2d2 | B2B2B2BA | G4B2d2 | A2G2A4
d3dd2B2 | A2d2g4 | G2E2D4
G3GG2B2 | A2B2G3G | G2G2G2E2 | D3ED4

